X:300
T: Da yingtao
N: C0806
O: China, Shanxi, Hequ
S: I, 325, 2)]
N: sehr typisch. Titel: Vase, Amphore) schlagen.
N: Vereinzelt Verzierungen.
R: Xiaodiao, Wuge, Errentai. Biaoda aiqing]
M: 2/4
L: 1/16
K: F
c3cA2c2 | g2f4d2 | c3AGAc2 | F8
A2d2c2f2 | d3cA2G2 | F3AG2D2 | C8
f2c4A2 | G3AG2F2 | D2C2AcAG | C8

